X:1
T:Title
%%score { 1 | ( 2 3 ) }
L:1/8
M:3/4
K:Bb
V:1 treble nm="Grand Piano"
V:2 bass 
V:3 bass 
V:1
 z2 z2[Q:1/4=94] F>F | B2 F2 c>F | d2 B2 B>B | e3 e [GB]>[^Fc] | [Fd]4 d>d | c2 F2 d>d | c2 F2 GA | %7
 cB [=EG]2 [EA]2 | F4 F>F | G3 A Bc | c2 F2 F>F | G3 A B>[Gc] | [^Fd]4 [=Fd]>[Gd] | %13
 [Ge]3 [=Ed] c>d |[M:2/4] c2 B2 |[M:1/4] AG |[M:3/4] F3 F c>[DB] |[M:2/4] [DB]4 |[M:1/4] F>F | %19
[M:3/4] B2 F2 c>F | d2 B2 BB | e2 [Ge]2 [Fd]>[Ec] | [Dd]4 [B,FB][C^FA] | [B,G]3 [D^FA] [DGB][Gc] | %24
[M:7/8] [^Fd]2 [=Fd]3 [Ee]d/c/ | B2 d3 c2 |[M:2/4] [DB]4 |] %27
V:2
 z2 z2 F,>F, | B,2 F,2 [F,A,F]>[K:treble][A,C] | [B,F]2 [B,D]2 [_A,B,D]>[A,B,F] | %3
 [G,B,E]3 [G,B,E] [E,B,]>[D,B,] | [B,,B,]4[K:treble] [B,F]>[B,=E] | [A,F]2 [A,C]2 [B,F]>[G,B,=E] | %6
 [A,F]2[K:bass] [A,C]2 [B,D][^F,CD] | [G,B,D][G,B,D] [C,B,]2 [C,C]2 | [F,A,]4 [F,A,C]>[F,A,C] | %9
 [F,B,D]3 [F,CE] [F,G,E][F,A,E] | [F,A,E]2 [F,A,E]2 [F,A,C]>[F,A,C] | %11
 [F,B,D]3 [^F,CE] [G,B,D]>[E,G,] | [D,A,]4 [G,=B,]>[G,B,] | [C,C]3 [C,B,] [F,A,E]>[^F,A,D] | %14
[M:2/4] [^F,A,D]2 [G,B,D]2 |[M:1/4] [=E,B,_D][E,B,D] |[M:3/4] [F,B,D]3 [F,B,D] [F,,A,E]>[B,,F,] | %17
[M:2/4] [B,,F,]4 |[M:1/4] F,>F, |[M:3/4] B,2 F,2[K:treble] [F,A,F]>[A,C] | %20
 [B,F]2 [B,D]2 [B,D][_A,DF] | [G,B,E]2 [E,B,]2 [F,A,]>[F,A,] | [B,,B,]4 D,D, | E,3 D, G,[E,G,] | %24
[M:7/8] [D,A,]2 [G,=B,]3 [C,C][E,G,E] | D2 [B,F]3 [F,A,E]2 |[M:2/4] [B,,B,]4 |] %27
V:3
 x6 | x11/2[K:treble] x/ | x6 | x6 | x4[K:treble] x2 | x6 | x2[K:bass] x4 | x6 | x6 | x6 | x6 | %11
 x6 | x6 | x6 |[M:2/4] x4 |[M:1/4] x2 |[M:3/4] x6 |[M:2/4] x4 |[M:1/4] x2 | %19
[M:3/4] x4[K:treble] x2 | x6 | x6 | x6 | x6 |[M:7/8] x7 | F,-F,- F,3 z2 |[M:2/4] x4 |] %27

